X: 50
T:Weeping and Wailing
% Nottingham Music Database
S:Rosemary Redpath
M:3/4
L:1/4
K:D
A|"D"dde|"D"fed|"G"GBB|"G"B/2B3/2B|"A"Ac3/2B/2|"A"AcA|"A7"gfe|
"D"f2A|"D"dde|"D"fed|"G"GBB|"Em"B/2B3/2B|"A"Ac3/2B/2|"A"AcA|"A7"gfe|
"D"d2d/2e/2|"D"f3|"Bm"a3|"D"a3/2g/2f|"Bm"ef2-|"D"fAA|"D"def|"G"gBe|\
"A7"dcA/2A/2|
"D"dde|"D"fed|"G"GBB|"Em"B/2B3/2B|"A"Ac3/2B/2|"A"AcA|"A7"gfe|"D"d2||


